src/svg/black/aeon.svg

<svg width="32" height="32" viewBox="0 0 32 32" version="1.1" xmlns="http://www.w3.org/2000/svg" xmlns:xlink="http://www.w3.org/1999/xlink"><title>black/aeon</title><desc>Created with Sketch.</desc><g id="black/aeon" stroke="none" stroke-width="1" fill="none" fill-rule="evenodd"><g id="Group-2" fill="#000" fill-rule="nonzero"><path d="M16,32 C7.163444,32 0,24.836556 0,16 C0,7.163444 7.163444,0 16,0 C24.836556,0 32,7.163444 32,16 C32,24.836556 24.836556,32 16,32 Z M26.9654224,14.7100402 C26.6369352,11.7457831 21.4546169,9.9124498 15.3948919,10.6148594 C9.33516699,11.3172691 4.68880157,14.2903614 5.0172888,17.2546185 C5.34577603,20.2188755 10.5237721,22.0522088 16.5878193,21.3497992 C22.6518664,20.6473896 27.2939096,17.6742972 26.9654224,14.7100402 Z M20.6247544,16.1943775 C20.011002,16.6317269 19.1163065,16.8481928 17.940668,16.8526104 L16.7996071,16.8570281 L16.7650295,17.0204819 C16.7520629,17.0690763 16.7477407,17.1044177 16.7477407,17.1309237 C16.7434185,17.153012 16.7434185,17.1751004 16.7434185,17.1927711 C16.7434185,17.4445783 16.8601179,17.6301205 17.0891945,17.7538153 C17.3182711,17.8819277 17.659725,17.9437751 18.1049116,17.9437751 C18.5284872,17.9437751 18.9347741,17.8951807 19.3194499,17.8068273 C19.6998035,17.7184739 20.0671906,17.5859438 20.4172888,17.4092369 L20.1277014,18.964257 C19.6911591,19.0702811 19.2719057,19.1542169 18.8569745,19.2072289 C18.4420432,19.2646586 18.0400786,19.2955823 17.6510806,19.2955823 C17.0978389,19.2955823 16.6396857,19.2293173 16.2722986,19.0879518 C15.891945,18.9421687 15.4683694,18.6240964 15.2565815,18.1690763 C14.8243615,18.5710843 14.3748527,18.8670683 13.9166994,19.0614458 C13.4585462,19.2558233 12.9744597,19.3574297 12.4644401,19.3574297 C11.8333988,19.3618474 11.3363458,19.2072289 10.9819253,18.9024096 C10.6231827,18.5975904 10.4459725,18.173494 10.4416503,17.6389558 C10.4373281,16.8172691 10.7442043,16.1943775 11.3536346,15.7614458 C11.967387,15.3240964 12.8620825,15.1076305 14.037721,15.1032129 L15.1787819,15.0987952 L15.2133595,14.9353414 C15.2263261,14.886747 15.2306483,14.8514056 15.2306483,14.8248996 C15.2349705,14.8028112 15.2349705,14.7807229 15.2349705,14.7630522 C15.2349705,14.511245 15.1182711,14.3257028 14.8891945,14.202008 C14.6601179,14.0738956 14.318664,14.0120482 13.8734774,14.0120482 C13.4499018,14.0120482 13.0436149,14.0606426 12.6589391,14.148996 C12.2785855,14.2373494 11.9111984,14.3698795 11.5611002,14.5465863 L11.8506876,12.9915663 C12.2872299,12.8855422 12.7064833,12.8016064 13.1214145,12.7485944 C13.5363458,12.6911647 13.9383104,12.660241 14.3273084,12.660241 C14.8805501,12.660241 15.3387033,12.726506 15.7060904,12.8678715 C16.086444,13.0136546 16.5100196,13.3317269 16.7218075,13.786747 C17.1540275,13.384739 17.6035363,13.088755 18.0616896,12.8943775 C18.5198428,12.7 19.0039293,12.5983936 19.5139489,12.5983936 C20.1449902,12.5939759 20.6420432,12.7485944 20.9964637,13.0534137 C21.3552063,13.3582329 21.5324165,13.7823293 21.5367387,14.3168675 C21.5410609,15.1341365 21.2385069,15.7614458 20.6247544,16.1943775 Z M13.9988212,16.32249 C13.5017682,16.32249 13.1257367,16.4064257 12.8664047,16.5654618 C12.6157171,16.7200803 12.4903733,16.9542169 12.4903733,17.2634538 C12.4903733,17.4931727 12.5681729,17.6787149 12.7151277,17.811245 C12.8664047,17.9437751 13.0781925,18.0100402 13.3418468,18.0100402 C13.7524558,18.0100402 14.0939096,17.8819277 14.3662083,17.6301205 C14.6385069,17.3738956 14.8243615,17.0160643 14.9151277,16.5566265 L14.9583497,16.32249 L13.9988212,16.32249 Z M19.2632613,14.1534137 C19.1119843,14.0208835 18.9001965,13.9546185 18.6365422,13.9546185 C18.2259332,13.9546185 17.8844794,14.0827309 17.6121807,14.3345382 C17.3398821,14.5907631 17.1540275,14.9485944 17.0632613,15.4080321 L17.0200393,15.6421687 L17.9795678,15.637751 C18.4766208,15.637751 18.8526523,15.5538153 19.1119843,15.3947791 C19.3626719,15.2401606 19.4880157,15.0060241 19.4880157,14.6967871 C19.4880157,14.4670683 19.4145383,14.2859438 19.2632613,14.1534137 Z M16.5229862,21.7032129 C15.6455796,21.8048193 14.7768173,21.8534137 13.9339882,21.8534137 C11.9284872,21.8534137 10.0526523,21.5706827 8.49233792,21.0184739 C7.78349705,20.7666667 7.1697446,20.4706827 6.65108055,20.1349398 C6.43929273,21.2526104 6.58192534,22.237751 7.13084479,22.9710843 C8.70844794,25.0783133 13.1214145,24.4068273 17.4868369,21.5706827 C17.1669941,21.6192771 16.8471513,21.6634538 16.5229862,21.7032129 Z M15.4986248,10.3056225 C18.459332,9.96104418 21.3119843,10.2040161 23.5292731,10.9903614 C24.2381139,11.2421687 24.8518664,11.5381526 25.3705305,11.8738956 C25.5823183,10.7562249 25.4396857,9.77108434 24.8907662,9.037751 C23.3131631,6.93052209 18.9001965,7.60200803 14.5347741,10.4381526 C14.8546169,10.3851406 15.1787819,10.3409639 15.4986248,10.3056225 Z M12.2785855,24.2654618 C11.6518664,24.411245 11.0640472,24.4907631 10.5194499,24.5084337 C10.9646365,25.6879518 11.6605108,26.5140562 12.5811395,26.8232932 C14.8027505,27.5698795 17.6770138,25.12249 19.7127701,21.0714859 C19.2330059,21.2040161 18.7359528,21.3232932 18.2345776,21.4248996 C16.2463654,22.8297189 14.1717092,23.8236948 12.2785855,24.2654618 Z M19.8770138,7.7124498 C20.5037328,7.57108434 21.0915521,7.49156627 21.6361493,7.47831325 C21.1952849,6.29879518 20.5037328,5.46827309 19.5831041,5.15461847 C17.3658153,4.39919679 14.4785855,6.83333333 12.4298625,10.8710843 C12.9096267,10.7385542 13.4066798,10.6236948 13.9123772,10.526506 C15.9005894,9.12610442 17.9795678,8.14538153 19.8770138,7.7124498 Z" id="Combined-Shape"/></g></g></svg>

<svg width="32" height="32" viewBox="0 0 32 32" xmlns="http://www.w3.org/2000/svg"><path d="M16 32C7.163 32 0 24.837 0 16S7.163 0 16 0s16 7.163 16 16-7.163 16-16 16zm10.965-17.29c-.328-2.964-5.51-4.798-11.57-4.095-6.06.702-10.706 3.675-10.378 6.64.329 2.964 5.507 4.797 11.57 4.095 6.065-.703 10.707-3.676 10.378-6.64zm-6.34 1.484c-.614.438-1.509.654-2.684.659l-1.141.004-.035.163a.434.434 0 0 0-.017.11c-.005.023-.005.045-.005.063 0 .252.117.437.346.56.23.129.57.19 1.016.19.423 0 .83-.048 1.214-.136.38-.089.748-.221 1.098-.398l-.29 1.555c-.436.106-.855.19-1.27.243a8.807 8.807 0 0 1-1.206.089c-.553 0-1.011-.067-1.379-.208-.38-.146-.804-.464-1.015-.919a4.641 4.641 0 0 1-1.34.892 3.684 3.684 0 0 1-1.453.296c-.63.005-1.128-.15-1.482-.455-.359-.304-.536-.729-.54-1.263-.005-.822.302-1.445.912-1.878.613-.437 1.508-.653 2.684-.658l1.14-.004.035-.164a.434.434 0 0 0 .018-.11c.004-.022.004-.044.004-.062 0-.252-.117-.437-.346-.561-.229-.128-.57-.19-1.016-.19-.423 0-.83.049-1.214.137-.38.088-.748.22-1.098.398l.29-1.555c.436-.106.855-.19 1.27-.243a8.807 8.807 0 0 1 1.206-.089c.554 0 1.012.067 1.38.208.38.146.803.464 1.015.919a4.641 4.641 0 0 1 1.34-.893 3.684 3.684 0 0 1 1.452-.296c.631-.004 1.128.15 1.482.455.36.305.536.73.54 1.264.005.817-.297 1.444-.911 1.877zm-6.626.128c-.497 0-.873.084-1.133.243-.25.155-.376.39-.376.698 0 .23.078.416.225.548.151.133.363.199.627.199.41 0 .752-.128 1.024-.38.273-.256.458-.614.55-1.073l.042-.235h-.96zm5.264-2.169c-.151-.132-.363-.198-.626-.198-.411 0-.753.128-1.025.38-.272.256-.458.614-.549 1.073l-.043.234.96-.004c.497 0 .873-.084 1.132-.243.25-.155.376-.389.376-.698 0-.23-.073-.411-.225-.544zm-2.74 7.55c-.877.102-1.746.15-2.589.15-2.006 0-3.881-.282-5.442-.835a8.81 8.81 0 0 1-1.84-.883c-.213 1.118-.07 2.103.479 2.836 1.577 2.107 5.99 1.436 10.356-1.4-.32.048-.64.092-.964.132zm-1.024-11.397c2.96-.345 5.813-.102 8.03.684a8.81 8.81 0 0 1 1.842.884c.211-1.118.069-2.103-.48-2.836-1.578-2.107-5.99-1.436-10.356 1.4.32-.053.644-.097.964-.132zm-3.22 13.96a9.094 9.094 0 0 1-1.76.242c.446 1.18 1.142 2.006 2.062 2.315 2.222.747 5.096-1.7 7.132-5.752-.48.133-.977.252-1.478.354-1.989 1.405-4.063 2.399-5.956 2.84zm7.598-16.554a9.044 9.044 0 0 1 1.76-.234c-.442-1.18-1.133-2.01-2.054-2.323-2.217-.756-5.104 1.678-7.153 5.716.48-.132.977-.247 1.482-.344 1.989-1.4 4.068-2.382 5.965-2.815z"/></svg>
